(GCode generated from image for 2D drawing)
G21 (Set units to millimeters)
G90 (Absolute positioning)
G28 (Go to home position)
G1 F1500 (Set feed rate)
M3 S1000 (Spindle on)
(Contour 1)
G0 Z5 (Pen up)
G0 X113.324 Y263.878
G1 Z0 (Pen down)
G1 X112.399 Y263.878
G1 X111.937 Y264.341
G1 X110.087 Y264.341
G1 X109.624 Y264.803
G1 X108.237 Y264.803
G1 X107.775 Y265.265
G1 X105.000 Y265.265
G1 X104.538 Y265.728
G1 X94.826 Y265.728
G1 X94.364 Y265.265
G1 X91.589 Y265.265
G1 X89.740 Y267.115
G1 X89.740 Y268.040
G1 X91.127 Y268.040
G1 X91.589 Y267.578
G1 X91.589 Y267.115
G1 X92.052 Y266.653
G1 X95.751 Y266.653
G1 X96.214 Y267.115
G1 X97.139 Y267.115
G1 X97.601 Y266.653
G1 X107.312 Y266.653
G1 X107.775 Y266.190
G1 X108.699 Y266.190
G1 X109.162 Y265.728
G1 X110.549 Y265.728
G1 X111.012 Y265.265
G1 X112.861 Y265.265
G1 X113.324 Y264.803
G0 Z5 (Pen up)
(Contour 2)
G0 Z5 (Pen up)
G0 X126.735 Y242.144
G1 Z0 (Pen down)
G1 X127.197 Y242.606
G1 X127.197 Y245.381
G1 X126.272 Y246.306
G1 X126.272 Y246.768
G1 X123.960 Y249.080
G1 X121.648 Y249.080
G1 X121.185 Y248.618
G1 X121.185 Y246.768
G1 X122.110 Y245.843
G1 X122.573 Y245.843
G1 X123.035 Y245.381
G1 X123.035 Y242.606
G1 X123.497 Y242.144
G0 Z5 (Pen up)
(Contour 3)
G0 Z5 (Pen up)
G0 X104.538 Y242.606
G1 Z0 (Pen down)
G1 X105.000 Y242.144
G1 X110.549 Y242.144
G1 X111.012 Y242.606
G1 X116.561 Y242.606
G1 X117.023 Y243.068
G1 X119.798 Y243.068
G1 X120.260 Y243.531
G1 X120.260 Y245.381
G1 X119.798 Y245.843
G1 X117.948 Y245.843
G1 X117.486 Y246.306
G1 X114.711 Y246.306
G1 X113.786 Y247.230
G1 X111.012 Y247.230
G1 X110.549 Y247.693
G1 X110.087 Y247.693
G1 X109.162 Y248.618
G1 X106.387 Y248.618
G1 X105.925 Y248.155
G1 X105.925 Y245.843
G1 X105.462 Y245.843
G1 X104.538 Y244.918
G0 Z5 (Pen up)
(Contour 4)
G0 Z5 (Pen up)
G0 X68.467 Y241.219
G1 Z0 (Pen down)
G1 X68.467 Y242.144
G1 X69.392 Y242.144
G1 X69.855 Y242.606
G1 X70.780 Y242.606
G1 X71.242 Y243.068
G1 X72.629 Y243.068
G1 X73.092 Y243.531
G1 X77.716 Y243.531
G1 X78.179 Y243.993
G1 X78.641 Y243.993
G1 X81.416 Y246.768
G1 X81.416 Y247.230
G1 X81.878 Y247.693
G1 X81.878 Y248.155
G1 X82.341 Y248.618
G1 X82.341 Y249.080
G1 X83.265 Y250.005
G1 X84.190 Y250.005
G1 X87.427 Y253.242
G1 X87.890 Y253.242
G1 X89.277 Y254.629
G1 X90.664 Y254.629
G1 X90.664 Y253.705
G1 X89.740 Y252.780
G1 X89.277 Y252.780
G1 X88.815 Y252.317
G1 X88.352 Y252.317
G1 X87.890 Y251.855
G1 X87.890 Y251.392
G1 X86.503 Y250.005
G1 X86.040 Y250.005
G1 X85.115 Y249.080
G1 X84.653 Y249.080
G1 X84.190 Y248.618
G1 X83.728 Y248.618
G1 X83.265 Y248.155
G1 X83.265 Y247.230
G1 X82.803 Y246.768
G1 X82.803 Y244.456
G1 X83.265 Y243.993
G1 X86.503 Y243.993
G1 X86.965 Y244.456
G1 X88.815 Y244.456
G1 X88.815 Y243.531
G1 X87.890 Y243.531
G1 X87.427 Y243.068
G1 X85.115 Y243.068
G1 X84.653 Y242.606
G1 X84.190 Y242.606
G1 X82.803 Y241.219
G1 X82.341 Y241.219
G1 X81.878 Y240.756
G1 X81.416 Y240.756
G1 X80.953 Y240.294
G1 X80.028 Y240.294
G1 X79.566 Y239.831
G1 X78.179 Y239.831
G1 X77.716 Y239.369
G1 X76.329 Y239.369
G1 X75.866 Y238.907
G1 X70.780 Y238.907
G1 X70.780 Y240.294
G1 X70.317 Y240.756
G1 X68.930 Y240.756
G0 Z5 (Pen up)
(Contour 5)
G0 Z5 (Pen up)
G0 X82.341 Y202.374
G1 Z0 (Pen down)
G1 X80.491 Y207.923
G1 X80.491 Y210.235
G1 X80.953 Y210.698
G1 X81.416 Y213.935
G1 X83.265 Y215.322
G1 X86.503 Y215.785
G1 X88.352 Y216.710
G1 X94.364 Y221.334
G1 X98.526 Y223.646
G1 X98.526 Y225.496
G1 X97.601 Y226.421
G1 X96.676 Y226.421
G1 X95.751 Y227.808
G1 X94.826 Y227.808
G1 X94.826 Y228.733
G1 X96.214 Y228.733
G1 X96.676 Y229.195
G1 X96.676 Y235.207
G1 X97.139 Y235.669
G1 X97.601 Y240.294
G1 X100.838 Y243.068
G1 X101.763 Y249.080
G1 X104.075 Y250.005
G1 X104.075 Y253.242
G1 X103.150 Y254.629
G1 X100.376 Y254.629
G1 X100.376 Y255.554
G1 X102.225 Y257.866
G1 X103.613 Y257.404
G1 X107.312 Y257.404
G1 X108.237 Y256.479
G1 X110.549 Y256.479
G1 X114.249 Y253.705
G1 X116.098 Y253.705
G1 X116.561 Y254.167
G1 X116.561 Y255.554
G1 X117.486 Y255.554
G1 X118.411 Y254.167
G1 X120.260 Y253.705
G1 X125.347 Y250.005
G1 X128.122 Y246.768
G1 X128.122 Y245.381
G1 X130.896 Y243.993
G1 X137.371 Y244.456
G1 X139.220 Y245.381
G1 X141.533 Y248.155
G1 X142.920 Y248.155
G1 X142.920 Y247.230
G1 X140.145 Y244.456
G1 X138.295 Y243.531
G1 X136.446 Y243.531
G1 X133.671 Y242.606
G1 X133.671 Y240.756
G1 X138.295 Y239.369
G1 X138.758 Y237.057
G1 X136.446 Y237.519
G1 X136.446 Y238.444
G1 X135.058 Y239.369
G1 X133.209 Y239.369
G1 X132.746 Y239.831
G1 X128.584 Y240.294
G1 X125.810 Y241.219
G1 X123.497 Y241.219
G1 X123.035 Y240.756
G1 X121.648 Y240.756
G1 X119.336 Y241.681
G1 X111.937 Y241.681
G1 X111.474 Y241.219
G1 X108.237 Y241.219
G1 X107.775 Y240.756
G1 X100.838 Y241.219
G1 X98.526 Y238.907
G1 X98.526 Y236.132
G1 X98.988 Y235.669
G1 X102.225 Y235.207
G1 X102.688 Y228.733
G1 X103.150 Y228.270
G1 X105.000 Y228.270
G1 X105.462 Y228.733
G1 X105.462 Y231.045
G1 X106.387 Y232.432
G1 X106.387 Y234.745
G1 X106.850 Y235.207
G1 X108.237 Y235.207
G1 X109.162 Y236.594
G1 X110.549 Y236.594
G1 X110.087 Y234.745
G1 X107.312 Y232.895
G1 X107.312 Y231.508
G1 X106.387 Y230.120
G1 X106.387 Y227.808
G1 X108.699 Y225.033
G1 X114.711 Y222.259
G1 X115.636 Y221.334
G1 X117.948 Y221.334
G1 X122.573 Y218.097
G1 X125.347 Y217.172
G1 X125.810 Y216.710
G1 X125.810 Y215.322
G1 X124.885 Y215.322
G1 X123.035 Y216.710
G1 X117.486 Y216.710
G1 X116.098 Y217.634
G1 X112.399 Y218.097
G1 X112.861 Y219.484
G1 X112.861 Y221.334
G1 X107.312 Y224.109
G1 X105.925 Y225.958
G1 X103.613 Y225.958
G1 X102.688 Y225.033
G1 X102.688 Y223.646
G1 X97.139 Y221.334
G1 X89.740 Y215.785
G1 X87.427 Y214.860
G1 X84.190 Y214.397
G1 X82.341 Y212.548
G1 X81.878 Y211.623
G1 X82.341 Y205.149
G1 X83.728 Y203.299
G1 X83.728 Y202.374
G0 Z5 (Pen up)
(Contour 6)
G0 Z5 (Pen up)
G0 X130.434 Y194.513
G1 Z0 (Pen down)
G1 X129.509 Y194.513
G1 X129.509 Y194.975
G1 X127.197 Y197.287
G1 X127.197 Y197.750
G1 X125.810 Y199.137
G1 X125.347 Y199.137
G1 X124.885 Y199.599
G1 X124.885 Y200.987
G1 X124.422 Y201.449
G1 X124.422 Y202.836
G1 X124.885 Y203.299
G1 X124.885 Y203.761
G1 X126.272 Y205.149
G1 X126.272 Y208.386
G1 X126.735 Y208.848
G1 X126.735 Y210.698
G1 X127.197 Y211.160
G1 X127.197 Y213.472
G1 X128.122 Y213.472
G1 X128.122 Y210.235
G1 X127.659 Y209.773
G1 X127.659 Y205.149
G1 X127.197 Y204.686
G1 X127.197 Y203.761
G1 X126.272 Y202.836
G1 X126.272 Y200.524
G1 X128.122 Y198.674
G1 X128.122 Y198.212
G1 X128.584 Y197.750
G1 X129.047 Y197.750
G1 X129.509 Y197.287
G1 X129.509 Y196.825
G1 X129.972 Y196.362
G1 X131.821 Y196.362
G1 X131.821 Y195.437
G1 X130.896 Y195.437
G1 X130.434 Y194.975
G0 Z5 (Pen up)
(Contour 7)
G0 Z5 (Pen up)
G0 X125.810 Y166.304
G1 Z0 (Pen down)
G1 X125.810 Y167.229
G1 X126.272 Y167.691
G1 X126.272 Y168.616
G1 X126.735 Y169.078
G1 X126.735 Y170.466
G1 X127.659 Y170.466
G1 X128.122 Y170.928
G1 X128.122 Y171.391
G1 X129.509 Y172.778
G1 X129.509 Y173.240
G1 X129.972 Y173.703
G1 X129.972 Y174.165
G1 X130.434 Y174.165
G1 X131.359 Y175.090
G1 X131.359 Y175.553
G1 X135.058 Y179.252
G1 X135.983 Y179.252
G1 X137.371 Y180.639
G1 X137.833 Y180.639
G1 X138.295 Y181.102
G1 X141.070 Y181.102
G1 X141.533 Y181.564
G1 X141.533 Y182.027
G1 X142.457 Y182.952
G1 X142.457 Y183.414
G1 X142.920 Y183.414
G1 X143.382 Y183.876
G1 X144.307 Y183.876
G1 X145.232 Y184.801
G1 X148.007 Y184.801
G1 X148.007 Y183.876
G1 X146.619 Y183.876
G1 X146.157 Y183.414
G1 X145.694 Y183.414
G1 X144.770 Y182.489
G1 X143.845 Y182.489
G1 X142.457 Y181.102
G1 X142.457 Y180.177
G1 X141.995 Y179.715
G1 X141.533 Y179.715
G1 X140.608 Y178.790
G1 X137.833 Y178.790
G1 X137.371 Y178.327
G1 X136.446 Y178.327
G1 X132.284 Y174.165
G1 X132.284 Y173.703
G1 X131.821 Y173.240
G1 X131.359 Y173.240
G1 X130.896 Y172.778
G1 X130.896 Y172.316
G1 X129.972 Y171.391
G1 X129.972 Y170.928
G1 X129.047 Y170.003
G1 X129.047 Y169.541
G1 X127.197 Y167.691
G1 X127.197 Y166.766
G1 X126.735 Y166.304
G0 Z5 (Pen up)
(Contour 8)
G0 Z5 (Pen up)
G0 X139.220 Y153.356
G1 Z0 (Pen down)
G1 X139.683 Y152.893
G1 X142.457 Y152.893
G1 X143.382 Y153.818
G1 X143.382 Y154.280
G1 X144.770 Y155.668
G1 X145.694 Y155.668
G1 X146.157 Y156.130
G1 X148.469 Y156.130
G1 X148.932 Y156.593
G1 X148.932 Y157.980
G1 X149.394 Y158.442
G1 X149.394 Y160.292
G1 X148.932 Y160.755
G1 X145.232 Y160.755
G1 X144.770 Y160.292
G1 X144.307 Y160.292
G1 X143.845 Y159.830
G1 X143.382 Y159.830
G1 X142.457 Y158.905
G1 X141.995 Y158.905
G1 X140.145 Y157.055
G1 X140.145 Y156.593
G1 X139.683 Y156.130
G1 X139.683 Y155.668
G1 X139.220 Y155.205
G0 Z5 (Pen up)
(Contour 9)
G0 Z5 (Pen up)
G0 X107.775 Y153.356
G1 Z0 (Pen down)
G1 X105.462 Y153.356
G1 X105.462 Y157.055
G1 X105.000 Y157.518
G1 X105.000 Y158.442
G1 X105.462 Y158.905
G1 X105.462 Y160.755
G1 X105.000 Y161.217
G1 X105.000 Y162.142
G1 X104.538 Y162.604
G1 X104.538 Y163.992
G1 X104.075 Y164.454
G1 X102.225 Y164.454
G1 X101.763 Y163.992
G1 X101.763 Y162.604
G1 X101.301 Y162.142
G1 X101.301 Y160.292
G1 X100.838 Y159.830
G1 X100.838 Y157.055
G1 X100.376 Y156.593
G1 X100.376 Y156.130
G1 X99.451 Y156.130
G1 X99.451 Y158.442
G1 X98.988 Y158.905
G1 X98.988 Y159.830
G1 X100.376 Y161.217
G1 X100.376 Y163.067
G1 X100.838 Y163.529
G1 X100.838 Y164.917
G1 X101.763 Y165.841
G1 X101.763 Y168.154
G1 X101.301 Y168.616
G1 X101.301 Y172.778
G1 X102.688 Y174.165
G1 X102.688 Y174.628
G1 X103.613 Y174.628
G1 X104.538 Y175.553
G1 X104.538 Y176.015
G1 X105.000 Y176.477
G1 X105.000 Y182.952
G1 X104.538 Y183.414
G1 X104.538 Y188.038
G1 X104.075 Y188.501
G1 X104.075 Y192.200
G1 X103.613 Y192.663
G1 X103.613 Y193.588
G1 X104.538 Y193.588
G1 X105.000 Y193.125
G1 X105.000 Y192.663
G1 X105.462 Y192.200
G1 X105.462 Y186.651
G1 X105.925 Y186.189
G1 X105.925 Y185.726
G1 X106.387 Y185.264
G1 X106.387 Y181.102
G1 X105.925 Y180.639
G1 X105.925 Y175.553
G1 X105.462 Y175.090
G1 X105.462 Y174.628
G1 X105.000 Y174.165
G1 X104.075 Y174.165
G1 X103.613 Y173.703
G1 X103.613 Y173.240
G1 X103.150 Y172.778
G1 X103.150 Y170.466
G1 X103.613 Y170.003
G1 X105.000 Y170.003
G1 X105.462 Y169.541
G1 X105.462 Y163.529
G1 X105.925 Y163.067
G1 X105.925 Y162.142
G1 X106.387 Y161.679
G1 X106.387 Y157.518
G1 X106.850 Y157.055
G1 X106.850 Y154.743
G1 X107.312 Y154.280
G1 X107.775 Y154.280
G0 Z5 (Pen up)
(Contour 10)
G0 Z5 (Pen up)
G0 X48.583 Y151.968
G1 Z0 (Pen down)
G1 X50.895 Y151.968
G1 X51.357 Y152.431
G1 X51.357 Y153.818
G1 X51.820 Y154.280
G1 X51.820 Y155.205
G1 X52.282 Y155.668
G1 X52.282 Y156.130
G1 X53.669 Y157.518
G1 X53.669 Y159.367
G1 X53.207 Y159.830
G1 X51.357 Y159.830
G1 X50.895 Y159.367
G1 X49.970 Y159.367
G1 X47.195 Y156.593
G1 X47.195 Y153.818
G1 X48.120 Y152.893
G1 X48.120 Y152.431
G0 Z5 (Pen up)
(Contour 11)
G0 Z5 (Pen up)
G0 X135.521 Y149.194
G1 Z0 (Pen down)
G1 X135.983 Y149.656
G1 X135.983 Y150.581
G1 X136.446 Y151.043
G1 X136.446 Y152.893
G1 X135.983 Y153.356
G1 X135.521 Y153.356
G1 X135.058 Y153.818
G1 X134.134 Y153.818
G1 X133.671 Y154.280
G1 X133.671 Y155.205
G1 X133.209 Y155.668
G1 X133.209 Y157.055
G1 X132.746 Y157.518
G1 X129.509 Y157.518
G1 X129.047 Y157.055
G1 X129.047 Y156.593
G1 X128.584 Y156.130
G1 X128.584 Y153.818
G1 X133.209 Y149.194
G0 Z5 (Pen up)
(Contour 12)
G0 Z5 (Pen up)
G0 X153.556 Y147.806
G1 Z0 (Pen down)
G1 X155.406 Y147.806
G1 X155.868 Y148.269
G1 X155.868 Y154.280
G1 X154.943 Y155.205
G1 X154.943 Y155.668
G1 X154.481 Y156.130
G1 X152.631 Y156.130
G1 X152.169 Y155.668
G1 X152.169 Y155.205
G1 X151.706 Y154.743
G1 X151.244 Y154.743
G1 X150.781 Y154.280
G1 X150.781 Y152.431
G1 X151.244 Y151.968
G1 X152.631 Y151.968
G1 X152.631 Y151.043
G1 X153.093 Y150.581
G1 X153.093 Y148.269
G0 Z5 (Pen up)
(Contour 13)
G0 Z5 (Pen up)
G0 X141.070 Y148.731
G1 Z0 (Pen down)
G1 X141.533 Y148.269
G1 X142.457 Y148.269
G1 X142.920 Y147.806
G1 X144.307 Y147.806
G1 X144.770 Y147.344
G1 X148.007 Y147.344
G1 X148.469 Y147.806
G1 X148.469 Y151.968
G1 X148.932 Y152.431
G1 X148.932 Y154.280
G1 X148.469 Y154.743
G1 X146.157 Y154.743
G1 X144.307 Y152.893
G1 X144.307 Y152.431
G1 X143.845 Y151.968
G1 X143.845 Y151.043
G1 X141.533 Y151.043
G1 X141.070 Y150.581
G0 Z5 (Pen up)
(Contour 14)
G0 Z5 (Pen up)
G0 X46.733 Y151.968
G1 Z0 (Pen down)
G1 X46.733 Y155.205
G1 X46.270 Y155.668
G1 X46.270 Y157.518
G1 X47.195 Y158.442
G1 X47.195 Y158.905
G1 X48.120 Y159.830
G1 X48.583 Y159.830
G1 X49.045 Y160.292
G1 X49.970 Y160.292
G1 X50.432 Y160.755
G1 X51.820 Y160.755
G1 X53.207 Y161.679
G1 X54.132 Y161.679
G1 X54.594 Y162.142
G1 X54.594 Y162.604
G1 X56.444 Y162.604
G1 X57.369 Y163.529
G1 X57.369 Y166.304
G1 X57.831 Y166.304
G1 X58.294 Y166.766
G1 X60.144 Y166.766
G1 X61.531 Y165.379
G1 X61.531 Y164.454
G1 X61.068 Y164.454
G1 X60.606 Y163.992
G1 X60.606 Y161.217
G1 X61.068 Y160.755
G1 X68.467 Y160.755
G1 X68.930 Y161.217
G1 X68.930 Y163.992
G1 X69.392 Y164.454
G1 X70.317 Y164.454
G1 X70.780 Y164.917
G1 X73.554 Y164.917
G1 X73.554 Y162.142
G1 X74.017 Y161.679
G1 X76.791 Y161.679
G1 X77.254 Y161.217
G1 X79.566 Y161.217
G1 X80.953 Y162.142
G1 X81.878 Y162.142
G1 X81.878 Y160.755
G1 X81.416 Y160.755
G1 X80.953 Y160.292
G1 X76.329 Y160.292
G1 X75.866 Y159.830
G1 X75.866 Y157.980
G1 X76.791 Y157.055
G1 X76.791 Y156.130
G1 X76.329 Y155.668
G1 X76.329 Y154.743
G1 X75.866 Y154.743
G1 X75.404 Y154.280
G1 X75.404 Y153.818
G1 X74.942 Y153.818
G1 X74.017 Y152.893
G1 X74.017 Y151.968
G1 X73.554 Y151.968
G1 X72.629 Y150.581
G1 X71.705 Y150.581
G1 X71.242 Y150.119
G1 X68.467 Y150.119
G1 X68.005 Y149.656
G1 X68.005 Y148.731
G1 X67.080 Y148.731
G1 X65.693 Y147.806
G1 X63.843 Y147.806
G1 X63.843 Y151.043
G1 X69.392 Y151.043
G1 X69.855 Y151.506
G1 X69.855 Y153.356
G1 X69.392 Y153.818
G1 X69.392 Y154.280
G1 X68.467 Y155.205
G1 X66.618 Y155.205
G1 X66.155 Y154.743
G1 X66.155 Y154.280
G1 X65.693 Y154.280
G1 X65.230 Y153.818
G1 X60.606 Y153.818
G1 X58.294 Y151.506
G1 X58.294 Y151.043
G1 X57.831 Y150.581
G1 X57.831 Y150.119
G1 X54.594 Y150.119
G1 X54.594 Y150.581
G1 X54.132 Y151.043
G1 X52.282 Y151.043
G1 X51.820 Y150.581
G1 X51.820 Y149.656
G1 X50.895 Y149.656
G1 X50.432 Y149.194
G1 X49.508 Y149.194
G1 X47.658 Y151.043
G1 X47.195 Y151.043
G1 X47.195 Y151.506
G0 Z5 (Pen up)
(Contour 15)
G0 Z5 (Pen up)
G0 X147.082 Y143.644
G1 Z0 (Pen down)
G1 X147.544 Y143.182
G1 X149.394 Y143.182
G1 X149.856 Y142.720
G1 X152.631 Y142.720
G1 X153.093 Y143.182
G1 X154.018 Y143.182
G1 X154.481 Y143.644
G1 X154.481 Y145.494
G1 X154.018 Y145.957
G1 X147.544 Y145.957
G1 X147.082 Y145.494
G0 Z5 (Pen up)
(Contour 16)
G0 Z5 (Pen up)
G0 X173.903 Y148.731
G1 Z0 (Pen down)
G1 X173.441 Y148.731
G1 X172.516 Y147.806
G1 X171.129 Y147.344
G1 X169.741 Y145.957
G1 X169.279 Y145.957
G1 X167.891 Y145.032
G1 X166.967 Y145.032
G1 X165.579 Y144.107
G1 X163.730 Y144.107
G1 X162.342 Y143.182
G1 X160.492 Y143.182
G1 X160.030 Y142.720
G1 X156.331 Y142.720
G1 X155.868 Y142.257
G1 X154.018 Y142.257
G1 X153.556 Y141.795
G1 X148.932 Y141.795
G1 X148.469 Y142.257
G1 X146.619 Y142.257
G1 X146.157 Y142.720
G1 X142.457 Y142.720
G1 X141.995 Y143.182
G1 X140.608 Y143.182
G1 X140.145 Y143.644
G1 X138.758 Y143.644
G1 X138.295 Y144.107
G1 X136.908 Y144.569
G1 X135.983 Y145.494
G1 X134.596 Y145.957
G1 X131.821 Y148.731
G1 X131.359 Y148.731
G1 X127.197 Y152.893
G1 X127.197 Y155.205
G1 X126.735 Y155.668
G1 X126.735 Y156.593
G1 X127.659 Y157.518
G1 X127.659 Y157.980
G1 X128.122 Y158.442
G1 X128.122 Y160.292
G1 X127.659 Y160.755
G1 X125.810 Y160.755
G1 X125.810 Y161.679
G1 X126.272 Y161.679
G1 X127.659 Y163.067
G1 X127.659 Y163.529
G1 X128.584 Y163.529
G1 X129.047 Y163.067
G1 X130.434 Y163.067
G1 X130.434 Y162.604
G1 X130.896 Y162.142
G1 X133.671 Y162.142
G1 X135.058 Y161.217
G1 X137.833 Y161.217
G1 X138.295 Y161.679
G1 X139.683 Y162.142
G1 X140.608 Y163.067
G1 X141.070 Y163.067
G1 X141.533 Y163.529
G1 X144.307 Y163.529
G1 X144.307 Y162.142
G1 X144.770 Y161.679
G1 X148.469 Y161.679
G1 X148.932 Y162.142
G1 X148.932 Y164.917
G1 X149.394 Y165.379
G1 X150.319 Y165.379
G1 X150.781 Y165.841
G1 X150.781 Y168.154
G1 X152.169 Y168.154
G1 X152.631 Y168.616
G1 X152.631 Y169.078
G1 X154.018 Y169.078
G1 X154.481 Y168.616
G1 X154.481 Y164.454
G1 X154.943 Y163.992
G1 X155.406 Y163.992
G1 X155.406 Y163.067
G1 X155.868 Y162.604
G1 X155.868 Y161.217
G1 X156.331 Y160.755
G1 X156.793 Y160.755
G1 X157.718 Y159.830
G1 X159.568 Y159.830
G1 X160.030 Y160.292
G1 X160.030 Y160.755
G1 X160.955 Y160.755
G1 X161.417 Y161.217
G1 X162.342 Y161.217
G1 X162.805 Y161.679
G1 X162.805 Y164.917
G1 X163.730 Y164.917
G1 X163.730 Y163.992
G1 X164.192 Y163.529
G1 X164.192 Y162.604
G1 X163.730 Y162.142
G1 X163.730 Y158.442
G1 X162.805 Y158.442
G1 X161.417 Y157.518
G1 X161.417 Y155.668
G1 X161.880 Y155.205
G1 X161.880 Y154.743
G1 X162.342 Y154.280
G1 X165.117 Y154.280
G1 X165.579 Y154.743
G1 X166.504 Y154.743
G1 X166.967 Y155.205
G1 X166.967 Y155.668
G1 X168.816 Y155.668
G1 X169.279 Y156.130
G1 X169.279 Y156.593
G1 X171.591 Y156.593
G1 X172.053 Y156.130
G1 X172.516 Y156.130
G1 X172.516 Y154.743
G1 X172.053 Y154.743
G1 X171.591 Y154.280
G1 X171.591 Y152.431
G1 X172.516 Y151.506
G1 X172.978 Y151.506
G1 X173.441 Y151.043
G1 X173.441 Y150.119
G1 X173.903 Y149.656
G0 Z5 (Pen up)
(Contour 17)
G0 Z5 (Pen up)
G0 X35.634 Y147.806
G1 Z0 (Pen down)
G1 X35.634 Y148.731
G1 X36.559 Y148.731
G1 X37.022 Y149.194
G1 X37.947 Y149.194
G1 X37.947 Y148.731
G1 X39.334 Y147.344
G1 X39.796 Y147.344
G1 X40.721 Y146.419
G1 X41.184 Y146.419
G1 X41.646 Y145.957
G1 X42.109 Y145.957
G1 X42.571 Y145.494
G1 X43.496 Y145.494
G1 X44.421 Y144.569
G1 X45.346 Y144.569
G1 X45.808 Y144.107
G1 X46.270 Y144.107
G1 X46.733 Y143.644
G1 X48.120 Y143.644
G1 X48.583 Y143.182
G1 X50.432 Y143.182
G1 X50.895 Y142.720
G1 X58.756 Y142.720
G1 X59.219 Y143.182
G1 X65.693 Y143.182
G1 X66.155 Y143.644
G1 X68.467 Y143.644
G1 X68.930 Y144.107
G1 X70.780 Y144.107
G1 X71.242 Y144.569
G1 X71.705 Y144.569
G1 X72.167 Y145.032
G1 X72.629 Y145.032
G1 X73.092 Y145.494
G1 X73.554 Y145.494
G1 X74.942 Y146.881
G1 X75.404 Y146.881
G1 X75.866 Y147.344
G1 X76.329 Y147.344
G1 X81.878 Y152.893
G1 X81.878 Y153.356
G1 X82.341 Y153.818
G1 X83.728 Y153.818
G1 X83.728 Y152.893
G1 X81.878 Y151.043
G1 X81.878 Y150.581
G1 X78.179 Y146.881
G1 X77.716 Y146.881
G1 X76.791 Y145.957
G1 X76.329 Y145.957
G1 X75.404 Y145.032
G1 X74.942 Y145.032
G1 X74.017 Y144.107
G1 X73.092 Y144.107
G1 X72.629 Y143.644
G1 X72.167 Y143.644
G1 X71.705 Y143.182
G1 X69.855 Y143.182
G1 X69.392 Y142.720
G1 X67.080 Y142.720
G1 X66.618 Y142.257
G1 X66.155 Y142.257
G1 X65.693 Y141.795
G1 X58.294 Y141.795
G1 X57.831 Y141.332
G1 X51.357 Y141.332
G1 X50.895 Y141.795
G1 X49.970 Y141.795
G1 X49.508 Y142.257
G1 X47.658 Y142.257
G1 X47.195 Y142.720
G1 X45.808 Y142.720
G1 X45.346 Y143.182
G1 X44.421 Y143.182
G1 X43.958 Y143.644
G1 X43.496 Y143.644
G1 X43.033 Y144.107
G1 X42.571 Y144.107
G1 X42.109 Y144.569
G1 X41.184 Y144.569
G1 X40.721 Y145.032
G1 X40.259 Y145.032
G1 X39.796 Y145.494
G1 X39.334 Y145.494
G1 X38.409 Y146.419
G1 X37.947 Y146.419
G1 X37.022 Y147.344
G1 X36.559 Y147.344
G1 X36.097 Y147.806
G0 Z5 (Pen up)
(Contour 18)
G0 Z5 (Pen up)
G0 X190.551 Y127.922
G1 Z0 (Pen down)
G1 X192.401 Y127.922
G1 X192.863 Y128.384
G1 X192.863 Y128.846
G1 X193.326 Y129.309
G1 X193.326 Y138.558
G1 X193.788 Y139.020
G1 X193.788 Y145.032
G1 X193.326 Y145.494
G1 X190.551 Y145.494
G1 X190.088 Y145.032
G1 X190.088 Y136.708
G1 X190.551 Y136.245
G1 X190.551 Y135.321
G1 X190.088 Y134.858
G1 X190.088 Y132.546
G1 X190.551 Y132.083
G1 X190.551 Y130.696
G1 X190.088 Y130.234
G1 X190.088 Y128.384
G0 Z5 (Pen up)
(Contour 19)
G0 Z5 (Pen up)
G0 X42.109 Y124.222
G1 Z0 (Pen down)
G1 X42.109 Y125.147
G1 X43.033 Y125.147
G1 X43.496 Y124.684
G1 X44.883 Y124.684
G1 X45.346 Y124.222
G1 X46.270 Y124.222
G1 X46.733 Y123.760
G1 X51.357 Y123.760
G1 X51.820 Y123.297
G1 X54.594 Y123.297
G1 X55.057 Y123.760
G1 X55.519 Y123.760
G1 X55.982 Y124.222
G1 X56.444 Y124.222
G1 X56.907 Y124.684
G1 X60.144 Y124.684
G1 X60.606 Y125.147
G1 X61.068 Y125.147
G1 X61.993 Y126.072
G1 X64.306 Y126.072
G1 X64.768 Y126.534
G1 X67.080 Y126.534
G1 X68.005 Y127.459
G1 X70.317 Y127.459
G1 X71.242 Y128.384
G1 X71.705 Y128.384
G1 X72.629 Y129.309
G1 X73.092 Y129.309
G1 X73.554 Y129.771
G1 X76.329 Y129.771
G1 X76.791 Y130.234
G1 X77.254 Y130.234
G1 X78.179 Y131.159
G1 X78.641 Y131.159
G1 X79.104 Y131.621
G1 X81.878 Y131.621
G1 X82.341 Y132.083
G1 X82.341 Y132.546
G1 X82.803 Y132.546
G1 X83.265 Y133.008
G1 X83.265 Y133.471
G1 X83.728 Y133.933
G1 X84.190 Y133.933
G1 X85.578 Y135.321
G1 X86.503 Y135.321
G1 X86.503 Y133.933
G1 X85.578 Y133.008
G1 X85.115 Y133.008
G1 X84.190 Y132.083
G1 X84.190 Y131.621
G1 X83.728 Y131.621
G1 X83.265 Y131.159
G1 X83.265 Y130.696
G1 X82.341 Y130.696
G1 X81.878 Y130.234
G1 X79.566 Y130.234
G1 X78.641 Y129.309
G1 X77.716 Y129.309
G1 X76.791 Y128.384
G1 X76.329 Y128.384
G1 X75.866 Y127.922
G1 X73.554 Y127.922
G1 X73.092 Y127.459
G1 X72.629 Y127.459
G1 X71.705 Y126.534
G1 X71.242 Y126.534
G1 X70.317 Y125.609
G1 X69.392 Y125.609
G1 X68.930 Y125.147
G1 X63.381 Y125.147
G1 X62.456 Y124.222
G1 X61.993 Y124.222
G1 X61.531 Y123.760
G1 X60.606 Y123.760
G1 X60.144 Y123.297
G1 X60.144 Y122.372
G1 X50.895 Y122.372
G1 X50.432 Y122.835
G1 X45.808 Y122.835
G1 X45.346 Y123.297
G1 X44.421 Y123.297
G1 X43.958 Y123.760
G1 X42.571 Y123.760
G0 Z5 (Pen up)
(Contour 20)
G0 Z5 (Pen up)
G0 X160.955 Y58.093
G1 Z0 (Pen down)
G1 X162.805 Y58.093
G1 X163.267 Y58.556
G1 X163.267 Y59.943
G1 X164.654 Y59.943
G1 X165.579 Y60.868
G1 X165.579 Y61.331
G1 X168.354 Y64.105
G1 X168.354 Y64.568
G1 X170.666 Y66.880
G1 X170.666 Y67.342
G1 X171.591 Y68.267
G1 X171.591 Y68.730
G1 X173.441 Y70.579
G1 X173.441 Y71.042
G1 X176.215 Y73.816
G1 X176.215 Y74.279
G1 X177.140 Y75.204
G1 X177.140 Y75.666
G1 X178.065 Y76.591
G1 X178.065 Y78.441
G1 X177.603 Y78.903
G1 X175.753 Y78.903
G1 X172.516 Y75.666
G1 X172.516 Y75.204
G1 X170.666 Y73.354
G1 X170.666 Y72.891
G1 X170.204 Y72.429
G1 X170.204 Y71.967
G1 X169.279 Y71.042
G1 X169.279 Y70.579
G1 X166.504 Y67.805
G1 X166.504 Y67.342
G1 X166.042 Y66.880
G1 X166.042 Y66.417
G1 X165.117 Y66.417
G1 X164.654 Y65.955
G1 X164.654 Y65.492
G1 X163.730 Y64.568
G1 X163.730 Y64.105
G1 X161.880 Y62.255
G1 X161.880 Y60.868
G1 X160.955 Y60.868
G1 X160.492 Y60.406
G1 X160.492 Y58.556
G0 Z5 (Pen up)
(Contour 21)
G0 Z5 (Pen up)
G0 X144.770 Y43.758
G1 Z0 (Pen down)
G1 X144.770 Y47.920
G1 X146.157 Y49.307
G1 X146.157 Y49.770
G1 X147.082 Y50.694
G1 X148.007 Y50.694
G1 X148.469 Y51.157
G1 X148.469 Y53.007
G1 X148.932 Y53.469
G1 X150.319 Y53.469
G1 X150.781 Y53.932
G1 X150.781 Y55.781
G1 X151.244 Y56.244
G1 X151.244 Y57.169
G1 X151.706 Y57.631
G1 X151.706 Y58.093
G1 X152.169 Y58.556
G1 X153.093 Y58.556
G1 X153.093 Y56.706
G1 X153.556 Y56.244
G1 X153.556 Y55.319
G1 X153.093 Y54.856
G1 X153.093 Y53.469
G1 X152.169 Y53.469
G1 X151.706 Y53.007
G1 X151.706 Y52.544
G1 X151.244 Y52.082
G1 X151.244 Y51.619
G1 X150.781 Y51.157
G1 X150.781 Y50.694
G1 X150.319 Y50.232
G1 X149.856 Y50.232
G1 X149.394 Y49.770
G1 X149.394 Y48.845
G1 X148.469 Y47.920
G1 X148.469 Y47.457
G1 X147.544 Y46.533
G1 X147.544 Y46.070
G1 X147.082 Y45.608
G1 X146.619 Y45.608
G1 X146.157 Y45.145
G1 X146.157 Y44.220
G1 X145.694 Y43.758
G0 Z5 (Pen up)
(Contour 22)
G0 Z5 (Pen up)
G0 X166.504 Y42.833
G1 Z0 (Pen down)
G1 X166.504 Y44.683
G1 X166.042 Y45.145
G1 X166.042 Y46.070
G1 X167.429 Y46.070
G1 X168.354 Y46.995
G1 X168.816 Y46.995
G1 X169.741 Y47.920
G1 X170.204 Y47.920
G1 X171.591 Y49.307
G1 X171.591 Y49.770
G1 X172.053 Y50.232
G1 X172.053 Y50.694
G1 X172.978 Y51.619
G1 X173.441 Y51.619
G1 X174.366 Y52.544
G1 X174.366 Y53.007
G1 X175.290 Y53.932
G1 X175.290 Y54.394
G1 X176.215 Y55.319
G1 X176.215 Y55.781
G1 X177.140 Y56.706
G1 X177.140 Y57.169
G1 X178.065 Y58.093
G1 X178.990 Y58.093
G1 X178.990 Y57.169
G1 X178.528 Y56.706
G1 X178.528 Y55.781
G1 X176.678 Y53.932
G1 X176.678 Y53.469
G1 X175.753 Y52.544
G1 X175.753 Y52.082
G1 X175.290 Y51.619
G1 X175.290 Y51.157
G1 X174.828 Y50.694
G1 X174.366 Y50.694
G1 X172.516 Y48.845
G1 X172.516 Y48.382
G1 X172.053 Y47.920
G1 X172.053 Y47.457
G1 X171.591 Y47.457
G1 X171.129 Y46.995
G1 X170.666 Y46.995
G1 X168.354 Y44.683
G1 X168.354 Y44.220
G1 X167.429 Y43.295
G1 X167.429 Y42.833
G0 Z5 (Pen up)
(Contour 23)
G0 Z5 (Pen up)
G0 X179.452 Y38.209
G1 Z0 (Pen down)
G1 X188.701 Y71.504
G1 X191.938 Y101.100
G1 X191.476 Y114.048
G1 X185.927 Y106.649
G1 X189.164 Y116.823
G1 X186.851 Y166.304
G1 X188.701 Y176.477
G1 X185.927 Y180.639
G1 X183.614 Y180.177
G1 X183.614 Y103.412
G1 X178.990 Y83.065
G1 X182.689 Y79.828
G1 X174.828 Y70.117
G1 X175.753 Y66.880
G1 X158.643 Y46.995
G1 X156.793 Y47.457
G1 X159.105 Y60.868
G1 X179.915 Y88.152
G1 X182.227 Y129.309
G1 X164.192 Y119.598
G1 X130.434 Y127.459
G1 X128.584 Y133.933
G1 X131.359 Y136.245
G1 X130.434 Y131.621
G1 X134.134 Y128.384
G1 X143.845 Y128.846
G1 X161.880 Y123.297
G1 X172.516 Y126.072
G1 X176.215 Y128.846
G1 X175.753 Y131.159
G1 X162.342 Y127.459
G1 X147.082 Y133.008
G1 X142.457 Y138.558
G1 X156.331 Y131.621
G1 X159.568 Y132.083
G1 X159.568 Y136.708
G1 X163.267 Y136.708
G1 X167.891 Y132.083
G1 X178.065 Y134.858
G1 X182.689 Y132.083
G1 X182.227 Y181.102
G1 X185.002 Y183.414
G1 X181.765 Y188.038
G1 X178.065 Y212.548
G1 X167.891 Y235.207
G1 X130.896 Y275.439
G1 X117.023 Y284.225
G1 X98.063 Y286.075
G1 X76.791 Y277.751
G1 X33.322 Y228.270
G1 X27.773 Y215.322
G1 X15.750 Y153.356
G1 X14.825 Y112.661
G1 X14.362 Y151.043
G1 X28.698 Y221.334
G1 X39.796 Y240.294
G1 X72.629 Y276.364
G1 X83.728 Y283.301
G1 X97.139 Y287.000
G1 X111.474 Y287.000
G1 X123.960 Y282.376
G1 X164.192 Y242.606
G1 X175.753 Y223.184
G1 X185.464 Y184.801
G1 X195.638 Y160.755
G1 X191.013 Y79.366
G1 X185.927 Y52.082
G0 Z5 (Pen up)
(Contour 24)
G0 Z5 (Pen up)
G0 X76.329 Y35.434
G1 Z0 (Pen down)
G1 X75.866 Y34.972
G1 X74.942 Y34.972
G1 X74.479 Y35.434
G1 X73.554 Y35.434
G1 X73.092 Y35.896
G1 X69.392 Y35.896
G1 X68.930 Y36.359
G1 X67.543 Y36.359
G1 X67.080 Y36.821
G1 X65.693 Y36.821
G1 X65.230 Y37.284
G1 X64.306 Y37.284
G1 X63.843 Y37.746
G1 X62.918 Y37.746
G1 X62.456 Y38.209
G1 X61.993 Y38.209
G1 X61.531 Y38.671
G1 X61.068 Y38.671
G1 X60.144 Y39.596
G1 X59.219 Y39.596
G1 X58.756 Y40.058
G1 X57.831 Y40.058
G1 X57.369 Y40.521
G1 X56.907 Y40.521
G1 X56.444 Y40.983
G1 X55.982 Y40.983
G1 X55.519 Y41.446
G1 X55.057 Y41.446
G1 X54.594 Y41.908
G1 X53.669 Y41.908
G1 X53.207 Y42.371
G1 X52.745 Y42.371
G1 X52.282 Y42.833
G1 X51.820 Y42.833
G1 X50.895 Y43.758
G1 X50.895 Y44.683
G1 X52.282 Y44.683
G1 X52.745 Y45.145
G1 X52.745 Y46.995
G1 X50.895 Y48.845
G1 X50.432 Y48.845
G1 X50.432 Y50.232
G1 X51.357 Y50.232
G1 X51.820 Y49.770
G1 X52.282 Y49.770
G1 X55.982 Y46.070
G1 X56.444 Y46.070
G1 X58.294 Y44.220
G1 X58.756 Y44.220
G1 X59.681 Y43.295
G1 X60.144 Y43.295
G1 X60.606 Y42.833
G1 X61.068 Y42.833
G1 X61.531 Y42.371
G1 X62.456 Y42.371
G1 X63.381 Y41.446
G1 X64.306 Y41.446
G1 X64.768 Y40.983
G1 X65.693 Y40.983
G1 X66.155 Y40.521
G1 X67.080 Y40.521
G1 X67.543 Y40.058
G1 X68.930 Y40.058
G1 X69.392 Y39.596
G1 X72.629 Y39.596
G1 X73.092 Y40.058
G1 X74.017 Y40.058
G1 X74.479 Y39.596
G1 X76.329 Y39.596
G0 Z5 (Pen up)
(Contour 25)
G0 Z5 (Pen up)
G0 X132.284 Y28.497
G1 Z0 (Pen down)
G1 X131.821 Y28.497
G1 X131.359 Y28.035
G1 X131.359 Y26.648
G1 X130.434 Y25.723
G1 X125.347 Y25.723
G1 X124.885 Y25.260
G1 X124.885 Y24.798
G1 X123.960 Y24.798
G1 X123.497 Y24.336
G1 X123.035 Y24.336
G1 X122.573 Y23.873
G1 X122.110 Y23.873
G1 X121.648 Y23.411
G1 X120.260 Y23.411
G1 X120.260 Y26.185
G1 X119.336 Y27.110
G1 X119.336 Y28.960
G1 X118.873 Y29.422
G1 X118.411 Y29.422
G1 X117.948 Y29.885
G1 X114.711 Y29.885
G1 X114.249 Y30.347
G1 X112.399 Y30.347
G1 X111.937 Y30.810
G1 X111.937 Y34.047
G1 X111.474 Y34.509
G1 X111.012 Y34.509
G1 X110.549 Y34.972
G1 X109.162 Y34.972
G1 X108.699 Y35.434
G1 X105.000 Y35.434
G1 X104.075 Y34.509
G1 X101.301 Y34.509
G1 X101.301 Y35.434
G1 X103.150 Y35.434
G1 X104.075 Y36.359
G1 X106.387 Y36.359
G1 X106.850 Y36.821
G1 X112.861 Y36.821
G1 X113.324 Y36.359
G1 X117.486 Y36.359
G1 X117.486 Y35.896
G1 X117.948 Y35.434
G1 X119.798 Y35.434
G1 X119.798 Y34.972
G1 X120.260 Y34.509
G1 X123.960 Y34.509
G1 X124.422 Y34.047
G1 X124.885 Y34.047
G1 X126.272 Y32.659
G1 X127.659 Y32.659
G1 X128.584 Y31.735
G1 X129.972 Y31.735
G1 X129.972 Y30.347
G1 X130.896 Y29.422
G1 X132.284 Y29.422
G0 Z5 (Pen up)
(Contour 26)
G0 Z5 (Pen up)
G0 X156.331 Y18.786
G1 Z0 (Pen down)
G1 X152.631 Y22.486
G1 X152.631 Y23.411
G1 X154.018 Y23.411
G1 X155.868 Y21.561
G1 X160.955 Y21.561
G1 X161.880 Y22.486
G1 X163.730 Y22.486
G1 X164.654 Y23.411
G1 X164.654 Y25.260
G1 X163.267 Y26.648
G1 X160.492 Y26.648
G1 X160.030 Y26.185
G1 X159.105 Y26.185
G1 X158.643 Y25.723
G1 X155.868 Y25.723
G1 X155.868 Y26.648
G1 X157.718 Y26.648
G1 X158.180 Y27.110
G1 X159.105 Y27.110
G1 X159.568 Y27.573
G1 X159.568 Y28.497
G1 X160.492 Y29.422
G1 X160.492 Y29.885
G1 X161.417 Y29.885
G1 X162.342 Y28.960
G1 X162.805 Y28.960
G1 X164.192 Y27.573
G1 X164.654 Y27.573
G1 X165.117 Y27.110
G1 X165.117 Y26.648
G1 X165.579 Y26.185
G1 X165.579 Y24.336
G1 X165.117 Y23.873
G1 X165.117 Y22.023
G1 X164.192 Y21.098
G1 X162.805 Y21.098
G1 X162.342 Y20.636
G1 X160.492 Y20.636
G1 X160.030 Y20.174
G1 X158.180 Y20.174
G1 X157.718 Y19.711
G1 X157.718 Y18.786
G0 Z5 (Pen up)
(Contour 27)
G0 Z5 (Pen up)
G0 X97.139 Y15.549
G1 Z0 (Pen down)
G1 X92.977 Y15.549
G1 X92.514 Y16.012
G1 X90.202 Y16.012
G1 X89.740 Y16.474
G1 X87.890 Y16.474
G1 X87.427 Y16.937
G1 X86.503 Y16.937
G1 X86.040 Y17.399
G1 X85.115 Y17.399
G1 X84.653 Y17.861
G1 X83.728 Y17.861
G1 X83.265 Y18.324
G1 X82.803 Y18.324
G1 X82.341 Y18.786
G1 X81.416 Y18.786
G1 X80.953 Y19.249
G1 X80.028 Y19.249
G1 X79.104 Y20.174
G1 X78.179 Y20.174
G1 X77.716 Y20.636
G1 X76.791 Y20.636
G1 X76.329 Y21.098
G1 X75.866 Y21.098
G1 X74.942 Y22.023
G1 X74.479 Y22.023
G1 X74.017 Y22.486
G1 X73.554 Y22.486
G1 X73.092 Y22.948
G1 X72.629 Y22.948
G1 X72.167 Y23.411
G1 X71.705 Y23.411
G1 X70.780 Y24.336
G1 X70.317 Y24.336
G1 X69.392 Y25.260
G1 X68.930 Y25.260
G1 X68.467 Y25.723
G1 X68.005 Y25.723
G1 X68.005 Y26.648
G1 X69.392 Y26.648
G1 X69.855 Y26.185
G1 X70.780 Y26.185
G1 X70.780 Y25.723
G1 X71.242 Y25.260
G1 X71.705 Y25.260
G1 X72.167 Y24.798
G1 X72.629 Y24.798
G1 X73.092 Y24.336
G1 X73.554 Y24.336
G1 X74.479 Y23.411
G1 X75.404 Y23.411
G1 X76.329 Y22.486
G1 X76.791 Y22.486
G1 X77.254 Y22.023
G1 X77.716 Y22.023
G1 X78.179 Y21.561
G1 X79.104 Y21.561
G1 X79.566 Y21.098
G1 X80.028 Y21.098
G1 X80.953 Y20.174
G1 X81.878 Y20.174
G1 X82.341 Y19.711
G1 X83.265 Y19.711
G1 X83.728 Y19.249
G1 X84.653 Y19.249
G1 X85.115 Y18.786
G1 X85.578 Y18.786
G1 X86.040 Y18.324
G1 X86.965 Y18.324
G1 X87.427 Y17.861
G1 X88.352 Y17.861
G1 X88.815 Y17.399
G1 X92.052 Y17.399
G1 X92.514 Y16.937
G1 X94.826 Y16.937
G1 X95.289 Y16.474
G1 X97.139 Y16.474
G0 Z5 (Pen up)
(Contour 28)
G0 Z5 (Pen up)
G0 X139.683 Y10.000
G1 Z0 (Pen down)
G1 X139.683 Y12.775
G1 X140.145 Y12.775
G1 X141.533 Y13.699
G1 X141.533 Y16.474
G1 X141.995 Y16.937
G1 X141.995 Y18.786
G1 X142.457 Y18.786
G1 X142.920 Y19.249
G1 X142.920 Y21.098
G1 X142.457 Y21.561
G1 X141.995 Y21.561
G1 X141.995 Y22.486
G1 X141.533 Y22.948
G1 X139.683 Y22.948
G1 X139.220 Y22.486
G1 X138.295 Y22.486
G1 X137.833 Y22.023
G1 X137.833 Y20.636
G1 X137.371 Y20.174
G1 X137.371 Y19.711
G1 X134.596 Y19.711
G1 X134.134 Y19.249
G1 X134.134 Y18.324
G1 X133.209 Y18.324
G1 X133.209 Y21.561
G1 X133.671 Y22.023
G1 X133.671 Y22.486
G1 X134.134 Y22.948
G1 X134.134 Y23.873
G1 X135.058 Y25.260
G1 X135.058 Y27.110
G1 X135.521 Y27.573
G1 X135.521 Y28.497
G1 X136.446 Y29.422
G1 X136.446 Y30.810
G1 X138.295 Y30.810
G1 X138.758 Y31.272
G1 X139.220 Y31.272
G1 X139.683 Y31.735
G1 X139.683 Y33.584
G1 X140.145 Y33.584
G1 X141.533 Y34.509
G1 X146.157 Y34.509
G1 X147.082 Y35.434
G1 X147.544 Y35.434
G1 X148.007 Y35.896
G1 X150.319 Y35.896
G1 X150.781 Y36.359
G1 X151.706 Y36.359
G1 X151.706 Y35.896
G1 X152.169 Y35.434
G1 X155.406 Y35.434
G1 X155.868 Y34.972
G1 X157.718 Y34.972
G1 X158.180 Y35.434
G1 X159.105 Y35.434
G1 X159.568 Y35.896
G1 X159.568 Y36.821
G1 X160.030 Y36.821
G1 X160.492 Y37.284
G1 X163.267 Y37.284
G1 X163.267 Y36.359
G1 X162.342 Y36.359
G1 X161.880 Y35.896
G1 X161.880 Y34.972
G1 X160.955 Y34.972
G1 X160.492 Y34.509
G1 X159.568 Y34.509
G1 X159.105 Y34.047
G1 X154.481 Y34.047
G1 X154.018 Y34.509
G1 X148.469 Y34.509
G1 X147.544 Y33.584
G1 X147.082 Y33.584
G1 X146.619 Y33.122
G1 X146.157 Y33.122
G1 X145.694 Y32.659
G1 X145.694 Y32.197
G1 X145.232 Y32.197
G1 X144.307 Y31.272
G1 X143.845 Y31.272
G1 X143.382 Y30.810
G1 X142.457 Y30.810
G1 X141.995 Y30.347
G1 X141.995 Y28.497
G1 X142.457 Y28.035
G1 X142.457 Y26.185
G1 X142.920 Y25.723
G1 X144.770 Y25.723
G1 X145.232 Y26.185
G1 X146.619 Y26.185
G1 X146.619 Y25.260
G1 X146.157 Y25.260
G1 X144.770 Y24.336
G1 X144.770 Y20.174
G1 X144.307 Y19.711
G1 X144.307 Y18.324
G1 X143.845 Y17.861
G1 X143.845 Y16.937
G1 X142.920 Y16.012
G1 X142.920 Y12.775
G1 X142.457 Y12.312
G1 X142.457 Y10.000
G0 Z5 (Pen up)
G0 X0 Y0 Z5 (Return to home)
M5 (Spindle off)
M30 (End of program)
