(GCode generated from image for 2D drawing)
G21 (Set units to millimeters)
G90 (Absolute positioning)
G28 (Go to home position)
G1 F1500 (Set feed rate)
M3 S1000 (Spindle on)
(Contour 1)
G0 Z5 (Pen up)
G0 X35.882 Y260.265
G1 Z0 (Pen down)
G1 X35.882 Y262.618
G1 X33.529 Y264.971
G1 X32.941 Y264.971
G1 X31.765 Y266.147
G1 X31.176 Y266.147
G1 X30.588 Y266.735
G1 X30.000 Y266.735
G1 X29.412 Y267.324
G1 X24.706 Y267.324
G1 X24.118 Y266.735
G1 X20.588 Y266.735
G1 X20.000 Y266.147
G1 X19.412 Y266.147
G1 X18.235 Y264.971
G1 X17.647 Y264.971
G1 X15.882 Y263.206
G1 X15.882 Y260.853
G1 X16.471 Y260.265
G1 X16.471 Y259.676
G1 X18.235 Y257.912
G1 X20.588 Y257.912
G1 X21.176 Y258.500
G1 X21.176 Y259.676
G1 X25.882 Y259.676
G1 X26.471 Y259.088
G1 X27.647 Y259.088
G1 X28.235 Y258.500
G1 X28.824 Y258.500
G1 X30.000 Y257.324
G1 X32.353 Y257.324
G1 X32.941 Y257.912
G1 X33.529 Y257.912
G0 Z5 (Pen up)
(Contour 2)
G0 Z5 (Pen up)
G0 X144.706 Y234.382
G1 Z0 (Pen down)
G1 X147.059 Y234.382
G1 X147.647 Y234.971
G1 X147.647 Y240.265
G1 X147.059 Y240.853
G1 X147.059 Y242.029
G1 X146.471 Y242.618
G1 X146.471 Y243.206
G1 X145.882 Y243.794
G1 X143.529 Y243.794
G1 X142.941 Y243.206
G1 X142.941 Y241.441
G1 X142.353 Y240.853
G1 X142.353 Y236.735
G0 Z5 (Pen up)
(Contour 3)
G0 Z5 (Pen up)
G0 X29.412 Y224.971
G1 Z0 (Pen down)
G1 X31.765 Y224.971
G1 X32.353 Y225.559
G1 X32.353 Y235.559
G1 X32.941 Y236.147
G1 X32.941 Y238.500
G1 X32.353 Y239.088
G1 X31.176 Y239.088
G1 X30.588 Y239.676
G1 X30.588 Y242.618
G1 X31.765 Y243.794
G1 X31.765 Y246.147
G1 X31.176 Y246.735
G1 X28.824 Y246.735
G1 X25.882 Y243.794
G1 X25.882 Y243.206
G1 X24.706 Y243.206
G1 X24.118 Y242.618
G1 X24.118 Y240.265
G1 X24.706 Y239.676
G1 X24.706 Y235.559
G1 X25.294 Y234.971
G1 X25.294 Y230.853
G1 X25.882 Y230.265
G1 X26.471 Y230.265
G1 X27.059 Y229.676
G1 X27.059 Y227.324
G0 Z5 (Pen up)
(Contour 4)
G0 Z5 (Pen up)
G0 X39.412 Y222.029
G1 Z0 (Pen down)
G1 X40.000 Y222.618
G1 X40.000 Y225.559
G1 X39.412 Y226.147
G1 X39.412 Y228.500
G1 X38.824 Y229.088
G1 X38.824 Y230.265
G1 X38.235 Y230.853
G1 X38.235 Y233.206
G1 X37.647 Y233.794
G1 X35.294 Y233.794
G1 X33.529 Y232.029
G1 X33.529 Y227.324
G1 X34.118 Y226.735
G1 X34.118 Y225.559
G1 X34.706 Y224.971
G1 X34.706 Y224.382
G1 X37.059 Y222.029
G0 Z5 (Pen up)
(Contour 5)
G0 Z5 (Pen up)
G0 X170.000 Y220.853
G1 Z0 (Pen down)
G1 X172.353 Y220.853
G1 X174.706 Y223.206
G1 X174.706 Y223.794
G1 X175.294 Y224.382
G1 X175.294 Y227.324
G1 X175.882 Y227.912
G1 X175.882 Y229.088
G1 X177.059 Y230.265
G1 X177.059 Y232.618
G1 X176.471 Y233.206
G1 X176.471 Y233.794
G1 X175.882 Y234.382
G1 X173.529 Y234.382
G1 X172.353 Y233.206
G1 X172.353 Y232.618
G1 X171.765 Y232.029
G1 X171.765 Y230.265
G1 X171.176 Y229.676
G1 X171.176 Y229.088
G1 X170.000 Y227.912
G1 X170.000 Y227.324
G1 X169.412 Y226.735
G1 X169.412 Y221.441
G0 Z5 (Pen up)
(Contour 6)
G0 Z5 (Pen up)
G0 X151.176 Y219.088
G1 Z0 (Pen down)
G1 X153.529 Y219.088
G1 X154.118 Y219.676
G1 X154.118 Y222.618
G1 X154.706 Y223.206
G1 X154.706 Y224.382
G1 X155.294 Y224.971
G1 X155.294 Y227.912
G1 X154.706 Y228.500
G1 X152.941 Y228.500
G1 X152.941 Y229.088
G1 X152.353 Y229.676
G1 X149.412 Y229.676
G1 X148.824 Y229.088
G1 X148.824 Y224.971
G1 X149.412 Y224.382
G1 X150.000 Y224.382
G1 X150.000 Y223.794
G1 X150.588 Y223.206
G1 X150.588 Y219.676
G0 Z5 (Pen up)
(Contour 7)
G0 Z5 (Pen up)
G0 X156.471 Y217.912
G1 Z0 (Pen down)
G1 X158.824 Y217.912
G1 X159.412 Y218.500
G1 X160.588 Y218.500
G1 X162.353 Y220.265
G1 X162.353 Y220.853
G1 X162.941 Y221.441
G1 X162.941 Y224.971
G1 X163.529 Y225.559
G1 X163.529 Y230.265
G1 X164.118 Y230.265
G1 X164.706 Y230.853
G1 X164.706 Y233.794
G1 X165.294 Y234.382
G1 X165.294 Y237.324
G1 X164.118 Y238.500
G1 X161.765 Y238.500
G1 X160.588 Y237.324
G1 X160.588 Y234.971
G1 X160.000 Y234.382
G1 X160.000 Y233.794
G1 X159.412 Y233.206
G1 X159.412 Y229.676
G1 X158.824 Y229.088
G1 X158.824 Y227.324
G1 X158.235 Y226.735
G1 X158.235 Y226.147
G1 X156.471 Y224.382
G1 X156.471 Y223.794
G1 X155.882 Y223.206
G1 X155.882 Y218.500
G0 Z5 (Pen up)
(Contour 8)
G0 Z5 (Pen up)
G0 X160.588 Y213.206
G1 Z0 (Pen down)
G1 X162.941 Y213.206
G1 X164.118 Y214.382
G1 X164.706 Y214.382
G1 X165.294 Y214.971
G1 X165.294 Y216.147
G1 X166.471 Y216.147
G1 X168.235 Y217.912
G1 X168.235 Y220.853
G1 X167.647 Y221.441
G1 X167.647 Y222.029
G1 X167.059 Y222.618
G1 X164.706 Y222.618
G1 X164.118 Y222.029
G1 X164.118 Y220.265
G1 X163.529 Y219.676
G1 X163.529 Y217.912
G1 X162.353 Y217.912
G1 X161.765 Y217.324
G1 X161.176 Y217.324
G1 X160.000 Y216.147
G1 X160.000 Y213.794
G0 Z5 (Pen up)
(Contour 9)
G0 Z5 (Pen up)
G0 X142.353 Y208.500
G1 Z0 (Pen down)
G1 X144.706 Y208.500
G1 X145.294 Y209.088
G1 X145.294 Y209.676
G1 X145.882 Y210.265
G1 X145.882 Y210.853
G1 X147.059 Y212.029
G1 X147.059 Y212.618
G1 X147.647 Y213.206
G1 X147.647 Y213.794
G1 X148.235 Y214.382
G1 X148.235 Y216.147
G1 X148.824 Y216.735
G1 X148.824 Y219.088
G1 X148.235 Y219.676
G1 X145.882 Y219.676
G1 X145.294 Y219.088
G1 X142.353 Y219.088
G1 X141.765 Y218.500
G1 X141.765 Y217.912
G1 X140.588 Y217.912
G1 X140.000 Y217.324
G1 X140.000 Y214.971
G1 X141.176 Y213.794
G1 X141.176 Y213.206
G1 X141.765 Y212.618
G1 X141.765 Y209.088
G0 Z5 (Pen up)
(Contour 10)
G0 Z5 (Pen up)
G0 X100.000 Y168.500
G1 Z0 (Pen down)
G1 X100.588 Y167.912
G1 X105.882 Y167.912
G1 X106.471 Y168.500
G1 X107.647 Y168.500
G1 X108.235 Y169.088
G1 X108.235 Y170.853
G1 X108.824 Y171.441
G1 X108.824 Y173.794
G1 X108.235 Y174.382
G1 X107.059 Y174.382
G1 X106.471 Y174.971
G1 X105.294 Y174.971
G1 X104.706 Y175.559
G1 X102.353 Y175.559
G1 X100.000 Y173.206
G0 Z5 (Pen up)
(Contour 11)
G0 Z5 (Pen up)
G0 X40.588 Y154.971
G1 Z0 (Pen down)
G1 X42.941 Y154.971
G1 X44.118 Y156.147
G1 X44.118 Y156.735
G1 X44.706 Y157.324
G1 X44.706 Y162.029
G1 X44.118 Y162.618
G1 X44.118 Y163.794
G1 X42.941 Y164.971
G1 X42.941 Y165.559
G1 X42.353 Y166.147
G1 X39.412 Y166.147
G1 X38.235 Y164.971
G1 X38.235 Y164.382
G1 X37.647 Y163.794
G1 X37.647 Y160.265
G1 X38.235 Y159.676
G1 X38.235 Y159.088
G1 X38.824 Y158.500
G1 X38.824 Y157.912
G1 X39.412 Y157.324
G1 X39.412 Y156.735
G1 X40.000 Y156.147
G1 X40.000 Y155.559
G0 Z5 (Pen up)
(Contour 12)
G0 Z5 (Pen up)
G0 X34.706 Y148.500
G1 Z0 (Pen down)
G1 X37.059 Y148.500
G1 X37.647 Y149.088
G1 X37.647 Y149.676
G1 X38.824 Y150.853
G1 X38.824 Y154.971
G1 X38.235 Y155.559
G1 X38.235 Y156.147
G1 X37.647 Y156.735
G1 X35.294 Y156.735
G1 X34.706 Y156.147
G1 X34.706 Y154.971
G1 X34.118 Y154.382
G1 X34.118 Y153.794
G1 X33.529 Y153.206
G1 X33.529 Y149.676
G0 Z5 (Pen up)
(Contour 13)
G0 Z5 (Pen up)
G0 X167.647 Y129.088
G1 Z0 (Pen down)
G1 X172.353 Y129.088
G1 X172.941 Y129.676
G1 X172.941 Y132.618
G1 X172.353 Y133.206
G1 X172.353 Y135.559
G1 X171.765 Y136.147
G1 X171.765 Y137.912
G1 X171.176 Y138.500
G1 X168.824 Y138.500
G1 X168.235 Y137.912
G1 X168.235 Y137.324
G1 X167.647 Y136.735
G1 X167.647 Y132.618
G1 X167.059 Y132.029
G1 X167.059 Y129.676
G0 Z5 (Pen up)
(Contour 14)
G0 Z5 (Pen up)
G0 X124.706 Y130.265
G1 Z0 (Pen down)
G1 X125.294 Y129.676
G1 X125.882 Y129.676
G1 X126.471 Y129.088
G1 X130.000 Y129.088
G1 X130.588 Y129.676
G1 X130.588 Y132.029
G1 X131.176 Y132.618
G1 X133.529 Y132.618
G1 X134.118 Y133.206
G1 X134.118 Y135.559
G1 X132.941 Y136.735
G1 X132.353 Y136.735
G1 X131.176 Y137.912
G1 X128.824 Y137.912
G1 X128.235 Y137.324
G1 X127.647 Y137.324
G1 X125.882 Y135.559
G1 X125.882 Y134.971
G1 X125.294 Y134.382
G1 X125.294 Y133.794
G1 X124.706 Y133.206
G0 Z5 (Pen up)
(Contour 15)
G0 Z5 (Pen up)
G0 X129.412 Y121.441
G1 Z0 (Pen down)
G1 X130.000 Y120.853
G1 X133.529 Y120.853
G1 X134.118 Y120.265
G1 X138.824 Y120.265
G1 X139.412 Y120.853
G1 X139.412 Y123.206
G1 X138.824 Y123.794
G1 X137.059 Y123.794
G1 X136.471 Y124.382
G1 X130.000 Y124.382
G1 X129.412 Y123.794
G0 Z5 (Pen up)
(Contour 16)
G0 Z5 (Pen up)
G0 X54.706 Y86.735
G1 Z0 (Pen down)
G1 X58.824 Y86.735
G1 X59.412 Y87.324
G1 X59.412 Y94.382
G1 X58.824 Y94.971
G1 X54.706 Y94.971
G1 X54.118 Y94.382
G1 X54.118 Y87.324
G0 Z5 (Pen up)
(Contour 17)
G0 Z5 (Pen up)
G0 X170.000 Y74.971
G1 Z0 (Pen down)
G1 X171.176 Y76.147
G1 X171.176 Y77.324
G1 X171.765 Y77.912
G1 X171.765 Y80.853
G1 X171.176 Y81.441
G1 X171.176 Y83.794
G1 X171.765 Y84.382
G1 X171.765 Y86.735
G1 X172.941 Y86.735
G1 X173.529 Y87.324
G1 X173.529 Y91.441
G1 X172.941 Y92.029
G1 X172.941 Y94.971
G1 X172.353 Y95.559
G1 X172.353 Y97.324
G1 X171.765 Y97.912
G1 X171.765 Y99.088
G1 X171.176 Y99.676
G1 X171.176 Y101.441
G1 X170.588 Y102.029
G1 X170.588 Y103.206
G1 X170.000 Y103.794
G1 X170.000 Y104.971
G1 X169.412 Y105.559
G1 X169.412 Y110.853
G1 X168.824 Y111.441
G1 X168.824 Y113.206
G1 X169.412 Y113.794
G1 X169.412 Y117.324
G1 X168.824 Y117.912
G1 X168.824 Y119.676
G1 X168.235 Y120.265
G1 X168.235 Y121.441
G1 X167.059 Y122.618
G1 X167.059 Y123.206
G1 X166.471 Y123.794
G1 X166.471 Y125.559
G1 X165.882 Y126.147
G1 X165.882 Y128.500
G1 X165.294 Y129.088
G1 X164.706 Y129.088
G1 X164.706 Y129.676
G1 X164.118 Y130.265
G1 X161.176 Y130.265
G1 X160.588 Y129.676
G1 X160.588 Y117.912
G1 X158.824 Y117.912
G1 X158.235 Y117.324
G1 X158.235 Y114.971
G1 X158.824 Y114.382
G1 X160.588 Y114.382
G1 X160.588 Y110.853
G1 X160.000 Y110.265
G1 X160.000 Y106.147
G1 X160.588 Y105.559
G1 X160.588 Y91.441
G1 X161.176 Y90.853
G1 X161.176 Y89.088
G1 X161.765 Y88.500
G1 X161.765 Y87.324
G1 X162.353 Y86.735
G1 X165.882 Y86.735
G1 X166.471 Y87.324
G1 X166.471 Y88.500
G1 X167.059 Y89.088
G1 X167.059 Y92.029
G1 X166.471 Y92.618
G1 X165.882 Y92.618
G1 X165.882 Y94.382
G1 X166.471 Y94.971
G1 X168.235 Y94.971
G1 X168.235 Y87.324
G1 X167.647 Y86.735
G1 X167.647 Y86.147
G1 X167.059 Y85.559
G1 X167.059 Y80.265
G1 X166.471 Y79.676
G1 X166.471 Y75.559
G1 X167.059 Y74.971
G0 Z5 (Pen up)
(Contour 18)
G0 Z5 (Pen up)
G0 X107.059 Y74.971
G1 Z0 (Pen down)
G1 X110.000 Y74.971
G1 X110.588 Y75.559
G1 X110.588 Y77.912
G1 X110.000 Y78.500
G1 X110.000 Y79.088
G1 X109.412 Y79.676
G1 X109.412 Y89.088
G1 X108.824 Y89.676
G1 X106.471 Y89.676
G1 X105.294 Y88.500
G1 X105.294 Y87.324
G1 X104.706 Y86.735
G1 X104.706 Y86.147
G1 X104.118 Y85.559
G1 X104.118 Y82.029
G1 X104.706 Y81.441
G1 X104.706 Y78.500
G1 X105.294 Y77.912
G1 X105.294 Y77.324
G1 X106.471 Y76.147
G1 X106.471 Y75.559
G0 Z5 (Pen up)
(Contour 19)
G0 Z5 (Pen up)
G0 X151.765 Y73.206
G1 Z0 (Pen down)
G1 X152.941 Y74.382
G1 X152.941 Y74.971
G1 X153.529 Y75.559
G1 X153.529 Y79.676
G1 X152.941 Y80.265
G1 X152.941 Y82.618
G1 X152.353 Y83.206
G1 X150.588 Y83.206
G1 X150.588 Y84.382
G1 X150.000 Y84.971
G1 X147.647 Y84.971
G1 X147.059 Y84.382
G1 X147.059 Y83.206
G1 X145.882 Y82.029
G1 X145.882 Y81.441
G1 X145.294 Y80.853
G1 X145.294 Y80.265
G1 X144.706 Y79.676
G1 X144.706 Y77.324
G1 X145.294 Y76.735
G1 X148.824 Y76.735
G1 X148.824 Y73.794
G1 X149.412 Y73.206
G0 Z5 (Pen up)
(Contour 20)
G0 Z5 (Pen up)
G0 X117.059 Y69.088
G1 Z0 (Pen down)
G1 X119.412 Y69.088
G1 X120.000 Y69.676
G1 X120.000 Y73.206
G1 X119.412 Y73.794
G1 X119.412 Y79.088
G1 X118.824 Y79.676
G1 X117.647 Y79.676
G1 X117.647 Y89.676
G1 X120.588 Y92.618
G1 X120.588 Y95.559
G1 X120.000 Y96.147
G1 X115.882 Y96.147
G1 X112.353 Y92.618
G1 X112.353 Y92.029
G1 X111.176 Y90.853
G1 X111.176 Y90.265
G1 X110.588 Y89.676
G1 X110.588 Y83.794
G1 X111.176 Y83.206
G1 X113.529 Y83.206
G1 X113.529 Y79.088
G1 X114.118 Y78.500
G1 X114.118 Y74.971
G1 X115.294 Y73.794
G1 X115.294 Y73.206
G1 X116.471 Y72.029
G1 X116.471 Y69.676
G0 Z5 (Pen up)
(Contour 21)
G0 Z5 (Pen up)
G0 X141.765 Y66.147
G1 Z0 (Pen down)
G1 X144.118 Y66.147
G1 X144.706 Y66.735
G1 X144.706 Y67.324
G1 X145.294 Y67.912
G1 X145.294 Y70.265
G1 X145.882 Y70.853
G1 X145.882 Y71.441
G1 X146.471 Y72.029
G1 X146.471 Y75.559
G1 X145.882 Y76.147
G1 X143.529 Y76.147
G1 X142.941 Y75.559
G1 X142.941 Y74.382
G1 X142.353 Y73.794
G1 X142.353 Y73.206
G1 X141.765 Y72.618
G1 X141.765 Y72.029
G1 X141.176 Y71.441
G1 X141.176 Y70.853
G1 X140.588 Y70.265
G1 X140.588 Y67.324
G0 Z5 (Pen up)
(Contour 22)
G0 Z5 (Pen up)
G0 X102.941 Y65.559
G1 Z0 (Pen down)
G1 X104.118 Y66.735
G1 X104.118 Y69.676
G1 X103.529 Y70.265
G1 X103.529 Y70.853
G1 X102.941 Y71.441
G1 X102.941 Y74.382
G1 X102.353 Y74.971
G1 X102.353 Y75.559
G1 X101.765 Y76.147
G1 X101.765 Y76.735
G1 X100.588 Y77.912
G1 X100.588 Y78.500
G1 X100.000 Y79.088
G1 X100.000 Y80.265
G1 X98.824 Y81.441
G1 X98.824 Y82.029
G1 X98.235 Y82.618
G1 X98.235 Y83.206
G1 X97.647 Y83.794
G1 X95.294 Y83.794
G1 X94.706 Y83.206
G1 X94.706 Y80.265
G1 X95.294 Y79.676
G1 X95.294 Y75.559
G1 X95.882 Y74.971
G1 X95.882 Y72.029
G1 X96.471 Y71.441
G1 X96.471 Y69.676
G1 X97.059 Y69.088
G1 X98.824 Y69.088
G1 X98.824 Y67.912
G1 X99.412 Y67.324
G1 X99.412 Y66.147
G1 X100.000 Y65.559
G0 Z5 (Pen up)
(Contour 23)
G0 Z5 (Pen up)
G0 X92.353 Y64.971
G1 Z0 (Pen down)
G1 X94.706 Y68.500
G1 X92.353 Y86.147
G1 X85.882 Y95.559
G1 X77.059 Y97.912
G1 X77.647 Y100.265
G1 X85.882 Y100.265
G1 X100.000 Y89.676
G1 X103.529 Y89.676
G1 X110.588 Y98.500
G1 X123.529 Y100.265
G1 X128.824 Y105.559
G1 X134.118 Y106.147
G1 X135.294 Y103.206
G1 X126.471 Y93.794
G1 X128.824 Y82.618
G1 X132.941 Y82.029
G1 X143.529 Y90.853
G1 X142.353 Y111.441
G1 X148.824 Y106.735
G1 X150.000 Y112.029
G1 X155.882 Y114.382
G1 X157.059 Y119.088
G1 X146.471 Y117.324
G1 X128.824 Y119.676
G1 X125.882 Y122.618
G1 X129.412 Y123.206
G1 X129.412 Y126.735
G1 X115.882 Y132.618
G1 X115.294 Y138.500
G1 X120.588 Y139.088
G1 X128.235 Y144.382
G1 X143.529 Y141.441
G1 X147.059 Y136.735
G1 X151.765 Y136.735
G1 X152.941 Y134.382
G1 X147.647 Y129.676
G1 X140.588 Y127.912
G1 X140.000 Y123.794
G1 X144.118 Y123.206
G1 X144.706 Y120.265
G1 X151.176 Y119.676
G1 X159.412 Y129.676
G1 X157.647 Y153.206
G1 X161.176 Y152.618
G1 X164.118 Y148.500
G1 X166.471 Y148.500
G1 X167.059 Y151.441
G1 X158.235 Y169.676
G1 X153.529 Y169.088
G1 X145.882 Y187.324
G1 X137.059 Y199.676
G1 X134.118 Y199.676
G1 X133.529 Y194.971
G1 X127.647 Y190.853
G1 X104.706 Y183.206
G1 X107.059 Y176.147
G1 X113.529 Y176.147
G1 X119.412 Y172.618
G1 X117.059 Y169.088
G1 X95.294 Y165.559
G1 X90.000 Y167.324
G1 X89.412 Y170.853
G1 X85.294 Y170.265
G1 X84.118 Y165.559
G1 X90.000 Y154.971
G1 X84.118 Y160.265
G1 X81.176 Y169.088
G1 X92.353 Y173.794
G1 X97.647 Y172.618
G1 X101.765 Y182.618
G1 X77.059 Y189.088
G1 X68.824 Y193.794
G1 X69.412 Y195.559
G1 X75.882 Y193.794
G1 X78.235 Y197.324
G1 X83.529 Y192.029
G1 X94.706 Y192.029
G1 X94.706 Y195.559
G1 X87.647 Y195.559
G1 X85.882 Y198.500
G1 X97.647 Y203.206
G1 X110.000 Y202.618
G1 X117.647 Y198.500
G1 X114.706 Y196.147
G1 X100.000 Y196.735
G1 X100.000 Y192.618
G1 X120.000 Y193.206
G1 X124.706 Y199.676
G1 X127.647 Y199.088
G1 X128.235 Y195.559
G1 X132.941 Y197.324
G1 X120.588 Y211.441
G1 X111.176 Y216.147
G1 X118.824 Y214.971
G1 X133.529 Y202.029
G1 X136.471 Y202.618
G1 X135.294 Y213.794
G1 X125.882 Y223.206
G1 X123.529 Y233.794
G1 X117.647 Y239.676
G1 X123.529 Y244.971
G1 X122.353 Y250.265
G1 X107.647 Y248.500
G1 X98.235 Y251.441
G1 X87.647 Y248.500
G1 X87.059 Y250.853
G1 X74.706 Y250.853
G1 X69.412 Y248.500
G1 X68.235 Y250.853
G1 X54.118 Y250.853
G1 X50.588 Y248.500
G1 X44.706 Y249.088
G1 X41.176 Y238.500
G1 X38.824 Y237.912
G1 X41.765 Y221.441
G1 X53.529 Y199.088
G1 X57.647 Y198.500
G1 X53.529 Y213.794
G1 X57.059 Y237.324
G1 X55.294 Y212.029
G1 X59.412 Y203.794
G1 X58.235 Y192.029
G1 X52.941 Y182.618
G1 X45.882 Y159.088
G1 X44.706 Y122.618
G1 X50.588 Y121.441
G1 X54.118 Y126.147
G1 X53.529 Y119.088
G1 X67.059 Y113.206
G1 X67.647 Y116.147
G1 X63.529 Y120.853
G1 X70.588 Y121.441
G1 X72.353 Y124.971
G1 X60.588 Y127.324
G1 X52.941 Y132.618
G1 X72.941 Y142.029
G1 X92.941 Y139.676
G1 X91.176 Y129.676
G1 X82.353 Y125.559
G1 X81.765 Y122.029
G1 X78.824 Y120.853
G1 X79.412 Y117.912
G1 X92.941 Y119.676
G1 X92.353 Y117.912
G1 X68.235 Y112.029
G1 X58.824 Y112.029
G1 X62.941 Y103.206
G1 X64.118 Y89.088
G1 X78.235 Y77.912
G1 X82.353 Y77.912
G1 X90.000 Y70.853
G1 X87.647 Y66.735
G0 Z5 (Pen up)
(Contour 24)
G0 Z5 (Pen up)
G0 X57.059 Y65.559
G1 Z0 (Pen down)
G1 X57.647 Y66.735
G1 X58.824 Y66.735
G1 X60.000 Y67.912
G1 X60.000 Y70.853
G1 X59.412 Y72.029
G1 X57.647 Y73.794
G1 X57.059 Y75.559
G1 X55.294 Y77.324
G1 X52.941 Y77.324
G1 X50.000 Y80.265
G1 X48.824 Y82.618
G1 X48.824 Y83.794
G1 X47.059 Y86.735
G1 X47.059 Y89.088
G1 X46.471 Y89.676
G1 X46.471 Y90.853
G1 X48.235 Y90.853
G1 X48.235 Y88.500
G1 X48.824 Y87.912
G1 X51.176 Y87.912
G1 X51.765 Y88.500
G1 X51.765 Y91.441
G1 X51.176 Y92.029
G1 X51.176 Y98.500
G1 X50.588 Y99.088
G1 X50.588 Y101.441
G1 X50.000 Y102.029
G1 X50.000 Y103.794
G1 X48.824 Y105.559
G1 X48.824 Y106.735
G1 X48.235 Y107.912
G1 X47.059 Y109.088
G1 X46.471 Y113.206
G1 X45.882 Y113.794
G1 X45.882 Y114.971
G1 X45.294 Y115.559
G1 X45.294 Y116.735
G1 X44.118 Y119.088
G1 X44.118 Y120.853
G1 X43.529 Y121.441
G1 X43.529 Y124.971
G1 X42.941 Y125.559
G1 X42.941 Y143.206
G1 X42.353 Y143.794
G1 X40.588 Y143.794
G1 X40.000 Y144.971
G1 X37.647 Y144.971
G1 X37.059 Y144.382
G1 X37.059 Y139.088
G1 X38.235 Y137.912
G1 X38.235 Y136.147
G1 X38.824 Y135.559
G1 X38.824 Y134.382
G1 X38.235 Y133.794
G1 X38.235 Y131.441
G1 X37.647 Y130.853
G1 X37.647 Y128.500
G1 X37.059 Y127.912
G1 X37.059 Y124.971
G1 X36.471 Y124.382
G1 X36.471 Y122.029
G1 X35.882 Y120.853
G1 X34.706 Y120.853
G1 X34.118 Y120.265
G1 X34.118 Y116.147
G1 X33.529 Y115.559
G1 X31.765 Y115.559
G1 X31.176 Y114.971
G1 X31.176 Y107.912
G1 X30.588 Y107.324
G1 X30.588 Y100.853
G1 X30.000 Y100.265
G1 X30.000 Y89.088
G1 X30.588 Y88.500
G1 X30.588 Y84.971
G1 X31.176 Y84.382
G1 X31.176 Y80.853
G1 X31.765 Y80.265
G1 X31.765 Y77.324
G1 X32.353 Y76.735
G1 X32.353 Y74.971
G1 X32.941 Y74.382
G1 X34.118 Y74.382
G1 X34.706 Y73.206
G1 X34.706 Y71.441
G1 X34.118 Y70.853
G1 X34.118 Y67.912
G1 X34.706 Y67.324
G1 X37.059 Y67.324
G1 X37.647 Y67.912
G1 X37.647 Y69.676
G1 X38.824 Y70.265
G1 X38.824 Y73.206
G1 X37.647 Y74.382
G1 X37.647 Y78.500
G1 X37.059 Y79.088
G1 X37.059 Y82.029
G1 X36.471 Y82.618
G1 X36.471 Y84.971
G1 X35.882 Y85.559
G1 X35.882 Y87.324
G1 X35.294 Y87.912
G1 X35.294 Y91.441
G1 X36.471 Y91.441
G1 X36.471 Y89.676
G1 X37.059 Y89.088
G1 X37.059 Y86.735
G1 X37.647 Y86.147
G1 X37.647 Y83.794
G1 X38.235 Y83.206
G1 X38.235 Y80.265
G1 X38.824 Y79.676
G1 X38.824 Y76.735
G1 X40.000 Y76.147
G1 X40.588 Y74.971
G1 X44.118 Y74.971
G1 X44.706 Y75.559
G1 X47.059 Y75.559
G1 X47.059 Y72.618
G1 X47.647 Y72.029
G1 X47.647 Y67.912
G1 X49.412 Y65.559
G1 X50.588 Y64.971
G0 Z5 (Pen up)
(Contour 25)
G0 Z5 (Pen up)
G0 X143.529 Y53.206
G1 Z0 (Pen down)
G1 X144.118 Y52.618
G1 X147.059 Y52.618
G1 X147.647 Y53.206
G1 X147.647 Y53.794
G1 X148.235 Y54.382
G1 X148.235 Y55.559
G1 X149.412 Y55.559
G1 X150.000 Y56.147
G1 X150.000 Y58.500
G1 X149.412 Y59.088
G1 X147.647 Y59.088
G1 X147.647 Y59.676
G1 X147.059 Y60.265
G1 X144.118 Y60.265
G1 X143.529 Y59.676
G0 Z5 (Pen up)
(Contour 26)
G0 Z5 (Pen up)
G0 X113.529 Y50.853
G1 Z0 (Pen down)
G1 X116.471 Y50.853
G1 X117.059 Y51.441
G1 X117.059 Y53.206
G1 X118.235 Y54.382
G1 X118.235 Y59.088
G1 X117.647 Y59.676
G1 X117.647 Y60.853
G1 X117.059 Y61.441
G1 X113.529 Y61.441
G1 X112.941 Y60.853
G1 X112.941 Y51.441
G0 Z5 (Pen up)
(Contour 27)
G0 Z5 (Pen up)
G0 X95.294 Y46.147
G1 Z0 (Pen down)
G1 X98.235 Y46.147
G1 X98.824 Y46.735
G1 X98.824 Y47.912
G1 X99.412 Y48.500
G1 X99.412 Y54.971
G1 X98.824 Y55.559
G1 X98.824 Y56.735
G1 X98.235 Y57.324
G1 X98.235 Y57.912
G1 X97.647 Y58.500
G1 X97.647 Y64.382
G1 X97.059 Y64.971
G1 X94.706 Y64.971
G1 X94.118 Y64.382
G1 X94.118 Y63.206
G1 X92.941 Y63.206
G1 X92.353 Y62.618
G1 X92.353 Y60.265
G1 X92.941 Y59.676
G1 X92.941 Y58.500
G1 X92.353 Y58.500
G1 X91.765 Y57.912
G1 X91.765 Y54.971
G1 X92.353 Y54.382
G1 X92.353 Y53.794
G1 X92.941 Y53.206
G1 X92.941 Y52.618
G1 X93.529 Y52.029
G1 X93.529 Y49.088
G1 X94.118 Y48.500
G1 X94.118 Y47.912
G1 X94.706 Y47.324
G1 X94.706 Y46.735
G0 Z5 (Pen up)
(Contour 28)
G0 Z5 (Pen up)
G0 X72.353 Y35.559
G1 Z0 (Pen down)
G1 X72.353 Y38.500
G1 X71.765 Y39.088
G1 X71.176 Y39.088
G1 X70.588 Y39.676
G1 X70.000 Y39.676
G1 X69.412 Y40.265
G1 X68.824 Y40.265
G1 X67.647 Y41.441
G1 X67.059 Y41.441
G1 X64.706 Y43.794
G1 X64.118 Y43.794
G1 X63.529 Y44.382
G1 X58.824 Y44.382
G1 X58.235 Y43.794
G1 X58.235 Y41.441
G1 X58.824 Y40.853
G1 X59.412 Y40.853
G1 X61.176 Y39.088
G1 X61.765 Y39.088
G1 X62.353 Y38.500
G1 X62.941 Y38.500
G1 X64.118 Y37.324
G1 X64.706 Y37.324
G1 X65.882 Y36.147
G1 X66.471 Y36.147
G1 X67.059 Y35.559
G1 X67.647 Y35.559
G1 X68.235 Y34.971
G1 X71.765 Y34.971
G0 Z5 (Pen up)
(Contour 29)
G0 Z5 (Pen up)
G0 X64.118 Y34.971
G1 Z0 (Pen down)
G1 X49.412 Y44.382
G1 X39.412 Y54.971
G1 X33.529 Y64.971
G1 X28.824 Y87.912
G1 X30.000 Y118.500
G1 X26.471 Y123.206
G1 X28.235 Y142.029
G1 X37.059 Y166.735
G1 X48.235 Y170.853
G1 X54.706 Y192.618
G1 X39.412 Y212.618
G1 X29.412 Y215.559
G1 X22.941 Y220.853
G1 X21.176 Y226.147
G1 X12.941 Y232.029
G1 X15.882 Y233.794
G1 X22.353 Y227.912
G1 X25.294 Y228.500
G1 X22.941 Y237.324
G1 X16.471 Y240.265
G1 X11.176 Y246.147
G1 X10.000 Y253.206
G1 X11.765 Y261.441
G1 X17.647 Y268.500
G1 X33.529 Y268.500
G1 X38.824 Y262.618
G1 X41.176 Y253.206
G1 X44.118 Y252.618
G1 X50.000 Y268.500
G1 X51.765 Y267.912
G1 X48.824 Y261.441
G1 X49.412 Y257.912
G1 X88.824 Y257.912
G1 X94.118 Y260.265
G1 X98.235 Y257.324
G1 X112.353 Y258.500
G1 X111.765 Y268.500
G1 X113.529 Y268.500
G1 X115.294 Y258.500
G1 X128.824 Y257.912
G1 X128.824 Y249.676
G1 X131.765 Y249.088
G1 X130.000 Y232.618
G1 X125.882 Y233.794
G1 X126.471 Y226.735
G1 X131.176 Y228.500
G1 X130.000 Y222.029
G1 X135.882 Y216.735
G1 X140.000 Y217.324
G1 X137.059 Y224.971
G1 X141.765 Y224.971
G1 X142.353 Y220.853
G1 X145.294 Y220.853
G1 X145.882 Y224.382
G1 X143.529 Y231.441
G1 X140.000 Y232.029
G1 X139.412 Y238.500
G1 X141.176 Y241.441
G1 X139.412 Y260.265
G1 X135.294 Y268.500
G1 X137.059 Y268.500
G1 X140.588 Y259.088
G1 X142.941 Y258.500
G1 X145.882 Y252.618
G1 X149.412 Y253.206
G1 X145.882 Y266.735
G1 X147.647 Y268.500
G1 X151.176 Y257.324
G1 X151.176 Y250.265
G1 X155.882 Y250.265
G1 X157.059 Y242.029
G1 X160.000 Y242.618
G1 X162.941 Y255.559
G1 X165.882 Y255.559
G1 X162.353 Y250.265
G1 X161.176 Y240.853
G1 X167.059 Y238.500
G1 X166.471 Y229.676
G1 X168.824 Y229.676
G1 X171.176 Y234.971
G1 X177.647 Y240.265
G1 X178.235 Y231.441
G1 X181.765 Y230.265
G1 X184.118 Y232.618
G1 X182.353 Y236.735
G1 X184.118 Y238.500
G1 X183.529 Y245.559
G1 X175.294 Y258.500
G1 X176.471 Y260.853
G1 X189.412 Y260.853
G1 X190.588 Y255.559
G1 X188.235 Y255.559
G1 X187.647 Y251.441
G1 X184.706 Y250.853
G1 X186.471 Y240.265
G1 X184.706 Y230.853
G1 X180.000 Y224.971
G1 X177.059 Y224.382
G1 X174.118 Y217.324
G1 X177.647 Y216.735
G1 X188.235 Y222.029
G1 X198.824 Y231.441
G1 X200.000 Y227.912
G1 X190.000 Y220.853
G1 X142.353 Y198.500
G1 X152.353 Y173.794
G1 X160.000 Y170.853
G1 X164.118 Y163.794
G1 X174.706 Y130.853
G1 X174.118 Y123.794
G1 X170.588 Y121.441
G1 X170.588 Y106.735
G1 X174.118 Y96.147
G1 X174.706 Y83.206
G1 X168.235 Y64.971
G1 X151.765 Y43.794
G1 X151.765 Y39.088
G1 X143.529 Y38.500
G1 X130.588 Y28.500
G1 X81.176 Y28.500
G1 X80.588 Y30.265
G0 Z5 (Pen up)
G0 X0 Y0 Z5 (Return to home)
M5 (Spindle off)
M30 (End of program)
